icons/Box2DWorld.svg

<svg height="16" viewBox="0 0 4.2333332 4.2333335" width="16" xmlns="http://www.w3.org/2000/svg"><path d="m8.0019531.99609375c-3.8556293-.00000008-7.0058595 3.15023005-7.00585935 7.00585935 0 3.1600969 2.11760545 5.8386909 5.00390625 6.7031249v-.705078-1.144531c-.0089201-.003663-.0184483-.006056-.0273438-.009766l.0273438-.064453v-1.779297-1.0039061-.5957031l-.2519531-.0820313-1.0625.0664063-1.1035157-1.0097657 1.9785157-2.0214843-.0996094-1.53125-1.3046875-.3789063c.3857308-.4171787.8402555-.7612259 1.34375-1.0351563l.625.1582032.6210938.7070312 2.3535156-.7070312 1.2792966-.2246094c1.007508.5131884 1.819744 1.3334188 2.31836 2.3496094l-2.398438-.3203125-1.3574218 1.0546875.0566407 1.4589844 1.4746091.6210937.591797 2.2109375.091797.054688c.072324-.216357.168047-.448022.335938-.671876.475499-.6339994 1.426432-1.0996089 2.509765-1.0996089.315593 0 .613798.0494139.898438.1210938.059392-.3658221.099609-.7388885.099609-1.1210938 0-3.855629-3.142417-7.00585935-6.9980469-7.00585935zm-5.1542969 7.99218745 1.0527344.2851563.3710938 1.3261715.7988281.488282-.1582031 1.146484c-1.0530287-.768513-1.8127725-1.911359-2.0644532-3.2460938zm8.9667968 4.0156248c.013262.03597.030988.06877.042969.105469.045033-.037878.089754-.056388.136719-.105469z" fill="#a5b7f3" transform="scale(.26458333)"/><g fill="none" stroke="#a5b7f3" stroke-linecap="square" stroke-width=".264583"><path d="m1.9848918 2.6458333v1.4552083h.396875s.396875 0 .396875-.396875-.396875-.396875-.396875-.396875h-.396875"/><path d="m4.1015585 4.1010416h-.79375c0-.6614583.79375-.5291666.79375-1.0583333 0 0 0-.2645833-.396875-.2645833s-.396875.2645833-.396875.2645833"/></g></svg>

<?xml version="1.0" encoding="UTF-8" standalone="no"?>
<svg
   xmlns:dc="http://purl.org/dc/elements/1.1/"
   xmlns:cc="http://creativecommons.org/ns#"
   xmlns:rdf="http://www.w3.org/1999/02/22-rdf-syntax-ns#"
   xmlns:svg="http://www.w3.org/2000/svg"
   xmlns="http://www.w3.org/2000/svg"
   xmlns:sodipodi="http://sodipodi.sourceforge.net/DTD/sodipodi-0.dtd"
   xmlns:inkscape="http://www.inkscape.org/namespaces/inkscape"
   width="16"
   height="16"
   viewBox="0 0 4.2333332 4.2333335"
   version="1.1"
   id="svg8"
   inkscape:version="1.0.1 (3bc2e813f5, 2020-09-07)"
   sodipodi:docname="Box2DWorld.svg"
   inkscape:export-filename="C:\Users\brian\Documents\GitHub\mygodot4\modules\godot_box2d\icons\Box2DWorld.png"
   inkscape:export-xdpi="96"
   inkscape:export-ydpi="96">
  <defs
     id="defs2" />
  <sodipodi:namedview
     id="base"
     pagecolor="#ffffff"
     bordercolor="#666666"
     borderopacity="1.0"
     inkscape:pageopacity="0.0"
     inkscape:pageshadow="2"
     inkscape:zoom="69.230173"
     inkscape:cx="10.605543"
     inkscape:cy="8.0248473"
     inkscape:document-units="px"
     inkscape:current-layer="layer1"
     inkscape:document-rotation="0"
     showgrid="true"
     units="px"
     inkscape:window-width="3840"
     inkscape:window-height="2126"
     inkscape:window-x="2149"
     inkscape:window-y="-11"
     inkscape:window-maximized="1"
     inkscape:snap-global="true"
     showguides="true">
    <inkscape:grid
       type="xygrid"
       id="grid852" />
  </sodipodi:namedview>
  <metadata
     id="metadata5">
    <rdf:RDF>
      <cc:Work
         rdf:about="">
        <dc:format>image/svg+xml</dc:format>
        <dc:type
           rdf:resource="http://purl.org/dc/dcmitype/StillImage" />
        <dc:title></dc:title>
      </cc:Work>
    </rdf:RDF>
  </metadata>
  <g
     inkscape:label="Layer 1"
     inkscape:groupmode="layer"
     id="layer1">
    <path
       id="path1035"
       style="color:#000000;font-style:normal;font-variant:normal;font-weight:normal;font-stretch:normal;font-size:medium;line-height:normal;font-family:sans-serif;font-variant-ligatures:normal;font-variant-position:normal;font-variant-caps:normal;font-variant-numeric:normal;font-variant-alternates:normal;font-variant-east-asian:normal;font-feature-settings:normal;font-variation-settings:normal;text-indent:0;text-align:start;text-decoration:none;text-decoration-line:none;text-decoration-style:solid;text-decoration-color:#000000;letter-spacing:normal;word-spacing:normal;text-transform:none;writing-mode:lr-tb;direction:ltr;text-orientation:mixed;dominant-baseline:auto;baseline-shift:baseline;text-anchor:start;white-space:normal;shape-padding:0;shape-margin:0;inline-size:0;clip-rule:nonzero;display:inline;overflow:visible;visibility:visible;opacity:1;isolation:auto;mix-blend-mode:normal;color-interpolation:sRGB;color-interpolation-filters:linearRGB;solid-color:#000000;solid-opacity:1;vector-effect:none;fill:#a5b7f3;fill-opacity:1;fill-rule:nonzero;stroke:none;stroke-width:1.75;stroke-linecap:round;stroke-linejoin:round;stroke-miterlimit:4;stroke-dasharray:none;stroke-dashoffset:0;stroke-opacity:1;paint-order:markers stroke fill;color-rendering:auto;image-rendering:auto;shape-rendering:auto;text-rendering:auto;enable-background:accumulate;stop-color:#000000;stop-opacity:1"
       d="M 8.0019531 0.99609375 C 4.1463238 0.99609367 0.9960936 4.1463238 0.99609375 8.0019531 C 0.99609375 11.16205 3.1136992 13.840644 6 14.705078 L 6 14 L 6 12.855469 C 5.9910799 12.851806 5.9815517 12.849413 5.9726562 12.845703 L 6 12.78125 L 6 11.001953 L 6 9.9980469 L 6 9.4023438 L 5.7480469 9.3203125 L 4.6855469 9.3867188 L 3.5820312 8.3769531 L 5.5605469 6.3554688 L 5.4609375 4.8242188 L 4.15625 4.4453125 C 4.5419808 4.0281338 4.9965055 3.6840866 5.5 3.4101562 L 6.125 3.5683594 L 6.7460938 4.2753906 L 9.0996094 3.5683594 L 10.378906 3.34375 C 11.386414 3.8569384 12.19865 4.6771688 12.697266 5.6933594 L 10.298828 5.3730469 L 8.9414062 6.4277344 L 8.9980469 7.8867188 L 10.472656 8.5078125 L 11.064453 10.71875 L 11.15625 10.773438 C 11.228574 10.557081 11.324297 10.325416 11.492188 10.101562 C 11.967687 9.4675626 12.91862 9.0019531 14.001953 9.0019531 C 14.317546 9.0019531 14.615751 9.051367 14.900391 9.1230469 C 14.959783 8.7572248 15 8.3841584 15 8.0019531 C 15 4.1463241 11.857583 0.99609375 8.0019531 0.99609375 z M 2.8476562 8.9882812 L 3.9003906 9.2734375 L 4.2714844 10.599609 L 5.0703125 11.087891 L 4.9121094 12.234375 C 3.8590807 11.465862 3.0993369 10.323016 2.8476562 8.9882812 z M 11.814453 13.003906 C 11.827715 13.039876 11.845441 13.072676 11.857422 13.109375 C 11.902455 13.071497 11.947176 13.052987 11.994141 13.003906 L 11.814453 13.003906 z "
       transform="scale(0.26458333)" />
    <path
       style="fill:none;stroke:#a5b7f3;stroke-width:0.264583px;stroke-linecap:square;stroke-linejoin:miter;stroke-opacity:1"
       d="m 1.9848918,2.6458333 v 1.4552083 h 0.396875 c 0,0 0.396875,0 0.396875,-0.396875 0,-0.396875 -0.396875,-0.396875 -0.396875,-0.396875 h -0.396875"
       id="path987"
       sodipodi:nodetypes="ccczcc" />
    <path
       style="fill:none;stroke:#a5b7f3;stroke-width:0.264583px;stroke-linecap:square;stroke-linejoin:miter;stroke-opacity:1"
       d="m 4.1015585,4.1010416 h -0.79375 c 0,-0.6614583 0.79375,-0.5291666 0.79375,-1.0583333 0,0 0,-0.2645833 -0.396875,-0.2645833 -0.396875,0 -0.396875,0.2645833 -0.396875,0.2645833"
       id="path989"
       sodipodi:nodetypes="ccszc" />
  </g>
</svg>
